!!!OTL: Schloss in Oesterreich.
!!!OTL-incipit: Is leyt eyn schlos eyn ostirreich,
!!!ARE: Europa, Mitteleuropa, Deutschland
!!!YOR: 1, S. 250
!!    1480 Handschrift (ca.)
!!!SCT: Q0024
!!!YEM: Copyright 1995, estate of Helmut Schaffrath.
**kern	**text
*ICvox	*
!! Irregular meter.
*MX	*
*k[b-]	*
*F:	*
4r	.
{4f	1._Js
=1:	=1:
2f	leyt
2a	eyn
2a	ſchlos
4f	eyn
=2:	=2:
2a	ö-
4b-	-ſtir-
2cc}	-reich,
{4f	[ganʒ
=3:	=3:
2cc	wol
4cc	iſt
2cc	es
4a	ge-
=4:	=4:
2b-	-bau-
4cc	.
1a;}	-et
{4f	von
=5:	=5:
2b-	ſilber
4b-	und
2b-	auch
4cc	von
=6:	=6:
2g	ro-
4g	-tem
2g;	gold,
4r}	.
{4g	mit
=7:	=7:
2cc	mür-
2cc	-mel-
4a	-ſtein
4f	.
*lig	*
2a	ge-
=8:	=8:
4.cc	-mau-
*Xlig	*
16b-L	.
16aJ	.
2g	-ert,
4g	jo
=9:	=9:
4.a	mau-
8g	.
4.f	.
8eL	.
8e	.
8dJ	.
=10:	=10:
1f;}	-ert.]
==	==
!!!AGN: Ballade, Gefangenschaft, Hinrichtung, Tod, Vergeltung
!! Refrainartiges Anhaengsel an der letzten Zeile.
!!!ONB: ESAC (Essen Associative Code) Database: BALLADE
!!!AMT: irregular
!!!AIN: vox
!!!EED: Helmut Schaffrath
!!!EEV: 1.0
!!@@COMMENT:"Ldb. Glogau, um 1480, Diskant Bl. C IIa."
!!@@END:
!!!source: Deutsche Volkslieder mit ihren Melodien. Balladen. Herausgegeben vom Deutschen Volksliedarchiv. Erster Band Balladen. Berlin und Leipzig 1935.
!!!page: 250
!!!ENC: Anna Maria Matuszewska
!!!EEV: 2025/02/14
*-	*-
